src/assets/images/TransVoucher.svg

<?xml version="1.0" encoding="UTF-8" standalone="no"?><!-- Generator: Gravit.io --><svg xmlns="http://www.w3.org/2000/svg" xmlns:xlink="http://www.w3.org/1999/xlink" style="isolation:isolate" viewBox="0 0 400 300" width="400pt" height="300pt"><defs><clipPath id="_clipPath_uqTvIIYz381tuDStUSZlwlqCOGc1GbC7"><rect width="400" height="300"/></clipPath></defs><g clip-path="url(#_clipPath_uqTvIIYz381tuDStUSZlwlqCOGc1GbC7)"><g><path d=" M 36.717 165.335 L 185.843 80.469 C 193.262 76.235 202.376 76.281 209.752 80.589 L 363.399 170.084 C 367.498 172.472 370.013 176.863 370 181.606 C 369.987 186.35 367.446 190.726 363.334 193.091 L 219.892 275.446 C 210.004 281.131 197.839 281.131 187.952 275.446 L 36.663 188.407 C 32.531 186.03 29.989 181.622 30 176.855 C 30.011 172.088 32.574 167.692 36.717 165.335 Z " fill="rgb(40,43,78)"/><g opacity="0.36"><path d=" M 78.33 166.324 L 190.647 102.367 C 196.226 99.192 203.074 99.225 208.622 102.454 L 324.373 169.834 C 327.496 171.615 329.423 174.933 329.423 178.528 C 329.423 182.123 327.496 185.441 324.373 187.222 L 216.349 249.255 C 208.9 253.537 199.736 253.537 192.288 249.255 L 78.286 183.701 C 75.174 181.911 73.258 178.59 73.267 175 C 73.276 171.409 75.208 168.098 78.33 166.324 L 78.33 166.324 Z " fill="rgb(99,104,155)"/></g></g><g opacity="0.32"><path d=" M 286.84 161.787 L 145.482 244 L 55.324 190.715 L 196.806 102.766" fill="none"/></g><path d=" M 291.811 55.474 L 108.397 55.474 C 97.574 55.474 88.839 64.209 88.839 75.032 L 88.839 192.382 C 88.839 203.205 97.574 211.94 108.397 211.94 L 291.811 211.94 C 302.634 211.94 311.369 203.205 311.369 192.382 L 311.369 75.032 C 311.369 64.209 302.634 55.474 291.811 55.474 Z " fill="rgb(254,219,171)"/><path d=" M 311.369 75.032 L 311.369 192.382 C 311.369 203.205 302.634 211.94 291.811 211.94 L 160.553 211.94 L 160.553 55.474 L 291.811 55.474 C 302.634 55.474 311.369 64.209 311.369 75.032 Z " fill="rgb(229,119,10)"/><path d=" M 193.15 101.11 C 193.15 111.802 184.414 120.668 173.592 120.668 L 147.514 120.668 C 136.822 120.668 127.956 111.933 127.956 101.11 C 127.956 89.896 137.343 81.03 148.688 81.552 C 151.817 81.813 155.99 82.855 160.553 86.115 C 160.683 86.245 160.944 86.376 161.074 86.506 C 173.2 76.076 193.15 84.029 193.15 101.11 Z " fill="rgb(254,168,50)"/><path d=" M 278.772 107.629 L 239.221 107.629 C 235.617 107.629 232.701 104.713 232.701 101.11 C 232.701 97.506 235.617 94.59 239.221 94.59 L 278.772 94.59 C 282.376 94.59 285.291 97.506 285.291 101.11 C 285.291 104.713 282.376 107.629 278.772 107.629 Z " fill="rgb(253,253,253)"/><path d=" M 278.772 146.746 L 239.221 146.746 C 235.617 146.746 232.701 143.83 232.701 140.227 C 232.701 136.623 235.617 133.707 239.221 133.707 L 278.772 133.707 C 282.376 133.707 285.291 136.623 285.291 140.227 C 285.291 143.83 282.376 146.746 278.772 146.746 Z " fill="rgb(253,253,253)"/><path d=" M 278.772 185.863 L 239.221 185.863 C 235.617 185.863 232.701 182.947 232.701 179.343 C 232.701 175.74 235.617 172.824 239.221 172.824 L 278.772 172.824 C 282.376 172.824 285.291 175.74 285.291 179.343 C 285.291 182.947 282.376 185.863 278.772 185.863 Z " fill="rgb(253,253,253)"/><path d=" M 193.15 101.11 C 193.15 111.802 184.414 120.668 173.592 120.668 L 160.553 120.668 L 160.553 86.115 C 160.683 86.245 160.944 86.376 161.074 86.506 C 173.2 76.076 193.15 84.029 193.15 101.11 Z " fill="rgb(254,153,35)"/><path d=" M 206.189 133.707 L 196.148 139.705 L 206.189 146.746 L 206.189 179.343 C 206.189 182.995 203.321 185.863 199.669 185.863 L 121.436 185.863 C 117.785 185.863 114.917 182.995 114.917 179.343 L 114.917 146.746 L 123.392 140.357 L 114.917 133.707 L 114.917 114.149 C 114.917 110.497 117.785 107.629 121.436 107.629 L 199.669 107.629 C 203.321 107.629 206.189 110.497 206.189 114.149 L 206.189 133.707 Z " fill="rgb(252,26,64)"/><path d=" M 206.189 133.707 L 196.148 139.705 L 206.189 146.746 L 206.189 179.343 C 206.189 182.995 203.321 185.863 199.669 185.863 L 160.553 185.863 L 160.553 107.629 L 199.669 107.629 C 203.321 107.629 206.189 110.497 206.189 114.149 L 206.189 133.707 Z " fill="rgb(198,0,52)"/><rect x="114.917" y="133.707" width="91.272" height="13.039" transform="matrix(1,0,0,1,0,0)" fill="rgb(254,168,50)"/><rect x="160.553" y="133.707" width="45.636" height="13.039" transform="matrix(1,0,0,1,0,0)" fill="rgb(254,153,35)"/><rect x="154.033" y="107.629" width="13.039" height="78.233" transform="matrix(1,0,0,1,0,0)" fill="rgb(254,219,65)"/><rect x="160.553" y="107.629" width="6.519" height="78.233" transform="matrix(1,0,0,1,0,0)" fill="rgb(252,191,41)"/></g></svg>

<?xml version="1.0" encoding="utf-8"?>
<!-- Generator: Adobe Illustrator 24.0.1, SVG Export Plug-In . SVG Version: 6.00 Build 0)  -->
<svg version="1.1" id="Layer_1" xmlns="http://www.w3.org/2000/svg" xmlns:xlink="http://www.w3.org/1999/xlink" x="0px" y="0px"
	 viewBox="0 0 400 300" style="enable-background:new 0 0 400 300;" xml:space="preserve">
<style type="text/css">
	.st0{clip-path:url(#SVGID_2_);}
	.st1{fill:#282B4E;}
	.st2{opacity:0.36;}
	.st3{fill:#63689B;}
	.st4{opacity:0.32;}
	.st5{fill:none;}
	.st6{fill:#FEDBAB;}
	.st7{fill:url(#SVGID_3_);}
	.st8{fill:#FEA832;}
	.st9{fill:#FDFDFD;}
	.st10{fill:#FE9923;}
	.st11{fill:#FC1A40;}
	.st12{fill:#C60034;}
	.st13{fill:#FEDB41;}
	.st14{fill:#FCBF29;}
</style>
<g>
	<defs>
		<rect id="SVGID_1_" width="400" height="300"/>
	</defs>
	<clipPath id="SVGID_2_">
		<use xlink:href="#SVGID_1_"  style="overflow:visible;"/>
	</clipPath>
	<g class="st0">
		<g>
			<path class="st1" d="M36.7,165.3l149.1-84.9c7.4-4.2,16.5-4.2,23.9,0.1l153.6,89.5c4.1,2.4,6.6,6.8,6.6,11.5
				c0,4.7-2.6,9.1-6.7,11.5l-143.4,82.4c-9.9,5.7-22.1,5.7-31.9,0l-151.3-87c-4.1-2.4-6.7-6.8-6.7-11.6S32.6,167.7,36.7,165.3z"/>
			<g class="st2">
				<path class="st3" d="M78.3,166.3l112.3-64c5.6-3.2,12.4-3.1,18,0.1l115.8,67.4c3.1,1.8,5.1,5.1,5.1,8.7s-1.9,6.9-5.1,8.7
					l-108,62c-7.4,4.3-16.6,4.3-24.1,0l-114-65.6c-3.1-1.8-5-5.1-5-8.7C73.3,171.4,75.2,168.1,78.3,166.3L78.3,166.3z"/>
			</g>
		</g>
		<g class="st4">
			<path class="st5" d="M286.8,161.8L145.5,244l-90.2-53.3l141.5-87.9"/>
		</g>
		<path class="st6" d="M291.8,55.5H108.4c-10.8,0-19.6,8.7-19.6,19.6v117.4c0,10.8,8.7,19.6,19.6,19.6h183.4
			c10.8,0,19.6-8.7,19.6-19.6V75C311.4,64.2,302.6,55.5,291.8,55.5z"/>
		<linearGradient id="SVGID_3_" gradientUnits="userSpaceOnUse" x1="160.553" y1="133.707" x2="311.369" y2="133.707">
			<stop  offset="0" style="stop-color:#F5524E"/>
			<stop  offset="1" style="stop-color:#D0342F"/>
		</linearGradient>
		<path class="st7" d="M311.4,75v117.4c0,10.8-8.7,19.6-19.6,19.6H160.6V55.5h131.3C302.6,55.5,311.4,64.2,311.4,75z"/>
		<path class="st8" d="M193.1,101.1c0,10.7-8.7,19.6-19.6,19.6h-26.1c-10.7,0-19.6-8.7-19.6-19.6c0-11.2,9.4-20.1,20.7-19.6
			c3.1,0.3,7.3,1.3,11.9,4.6c0.1,0.1,0.4,0.3,0.5,0.4C173.2,76.1,193.1,84,193.1,101.1z"/>
		<path class="st9" d="M278.8,107.6h-39.6c-3.6,0-6.5-2.9-6.5-6.5c0-3.6,2.9-6.5,6.5-6.5h39.6c3.6,0,6.5,2.9,6.5,6.5
			C285.3,104.7,282.4,107.6,278.8,107.6z"/>
		<path class="st9" d="M278.8,146.7h-39.6c-3.6,0-6.5-2.9-6.5-6.5c0-3.6,2.9-6.5,6.5-6.5h39.6c3.6,0,6.5,2.9,6.5,6.5
			C285.3,143.8,282.4,146.7,278.8,146.7z"/>
		<path class="st9" d="M278.8,185.9h-39.6c-3.6,0-6.5-2.9-6.5-6.5c0-3.6,2.9-6.5,6.5-6.5h39.6c3.6,0,6.5,2.9,6.5,6.5
			C285.3,182.9,282.4,185.9,278.8,185.9z"/>
		<path class="st10" d="M193.1,101.1c0,10.7-8.7,19.6-19.6,19.6h-13V86.1c0.1,0.1,0.4,0.3,0.5,0.4C173.2,76.1,193.1,84,193.1,101.1z
			"/>
		<path class="st11" d="M206.2,133.7l-10,6l10,7v32.6c0,3.7-2.9,6.5-6.5,6.5h-78.2c-3.7,0-6.5-2.9-6.5-6.5v-32.6l8.5-6.4l-8.5-6.6
			v-19.6c0-3.7,2.9-6.5,6.5-6.5h78.2c3.7,0,6.5,2.9,6.5,6.5V133.7z"/>
		<path class="st12" d="M206.2,133.7l-10,6l10,7v32.6c0,3.7-2.9,6.5-6.5,6.5h-39.1v-78.2h39.1c3.7,0,6.5,2.9,6.5,6.5V133.7z"/>
		<rect x="114.9" y="133.7" class="st8" width="91.3" height="13"/>
		<rect x="160.6" y="133.7" class="st10" width="45.6" height="13"/>
		<rect x="154" y="107.6" class="st13" width="13" height="78.2"/>
		<rect x="160.6" y="107.6" class="st14" width="6.5" height="78.2"/>
	</g>
</g>
</svg>
